static/logo2.svg

<svg xmlns="http://www.w3.org/2000/svg" width="70" height="70" style="width: 100%; height: 100%;" viewBox="0 0 70 70">
    <desc>
        Made with illustrio
    </desc>
    <g class="content">
        <path d="M15.5005733 13.2148148L14.8755733 12.5851852 14.8755733 15.0816633C14.8755733 15.4293982 15.1553953 15.711293 15.5005733 15.711293L18.5 15.711293 17.875 15.0816633 17.875 17.6222222C17.875 17.9699571 18.154822 18.2518519 18.5 18.2518519 18.845178 18.2518519 19.125 17.9699571 19.125 17.6222222L19.125 15.0816633C19.125 14.7339285 18.845178 14.4520337 18.5 14.4520337L15.5005733 14.4520337 16.1255733 15.0816633 16.1255733 12.5851852C16.1255733 12.2374503 15.8457513 11.9555556 15.5005733 11.9555556L12.5 11.9555556C12.154822 11.9555556 11.875 12.2374503 11.875 12.5851852 11.875 12.93292 12.154822 13.2148148 12.5 13.2148148L15.5005733 13.2148148zM39.875 61.9781628L40.5 61.3485332 38.5175027 61.3485332C38.1723247 61.3485332 37.8925027 61.630428 37.8925027 61.9781628L37.8925027 63.9925926 38.5175027 63.362963 36.5 63.362963C36.154822 63.362963 35.875 63.6448578 35.875 63.9925926 35.875 64.3403274 36.154822 64.6222222 36.5 64.6222222L38.5175027 64.6222222C38.8626806 64.6222222 39.1425027 64.3403274 39.1425027 63.9925926L39.1425027 61.9781628 38.5175027 62.6077925 40.5 62.6077925C40.845178 62.6077925 41.125 62.3258977 41.125 61.9781628L41.125 59.962963C41.125 59.6152281 40.845178 59.3333333 40.5 59.3333333 40.154822 59.3333333 39.875 59.6152281 39.875 59.962963L39.875 61.9781628zM22.0085834 53.2696685C22.209214 52.986705 22.1441567 52.5934698 21.8632739 52.391353 21.582391 52.1892362 21.1920472 52.2547754 20.9914166 52.5377389L18.4914166 56.0636648C18.290786 56.3466283 18.3558433 56.7398636 18.6367261 56.9419803 18.917609 57.1440971 19.3079528 57.0785579 19.5085834 56.7955944L22.0085834 53.2696685zM56.2155706 56.1589774C56.4768377 56.3862307 56.871507 56.3570882 57.0970893 56.0938858 57.3226715 55.8306835 57.2937433 55.4330906 57.0324763 55.2058374L54.4084528 52.92343C54.1471858 52.6961767 53.7525164 52.7253192 53.5269342 52.9885216 53.3013519 53.251724 53.3302801 53.6493168 53.5915472 53.87657L56.2155706 56.1589774zM13.125 43.0888889C13.125 41.2111207 11.613961 39.6888889 9.75 39.6888889 7.88603897 39.6888889 6.375 41.2111207 6.375 43.0888889 6.375 44.966657 7.88603897 46.4888889 9.75 46.4888889 11.613961 46.4888889 13.125 44.966657 13.125 43.0888889zM7.625 43.0888889C7.625 41.9065904 8.57639491 40.9481481 9.75 40.9481481 10.9236051 40.9481481 11.875 41.9065904 11.875 43.0888889 11.875 44.2711874 10.9236051 45.2296296 9.75 45.2296296 8.57639491 45.2296296 7.625 44.2711874 7.625 43.0888889z" class="secondary-fill" style="fill-opacity: 0.5;"/>
        <ellipse cx="28" cy="7.059" class="secondary-fill" rx="1" ry="1.007" style="fill-opacity: 0.5;"/>
        <ellipse cx="17.25" cy="58.696" class="secondary-fill" rx=".75" ry=".756" style="fill-opacity: 0.5;"/>
        <ellipse cx="63.25" cy="28.563" class="secondary-fill" rx=".75" ry=".756" style="fill-opacity: 0.5;"/>
        <ellipse cx="59.75" cy="44.615" class="secondary-fill" rx="1.25" ry="1.259" style="fill-opacity: 0.5;"/>
        <path d="M60.625 23.1703704C60.625 21.709884 59.4497475 20.5259259 58 20.5259259 56.5502525 20.5259259 55.375 21.709884 55.375 23.1703704 55.375 24.6308567 56.5502525 25.8148148 58 25.8148148 59.4497475 25.8148148 60.625 24.6308567 60.625 23.1703704zM56.625 23.1703704C56.625 22.4053537 57.2406085 21.7851852 58 21.7851852 58.7593915 21.7851852 59.375 22.4053537 59.375 23.1703704 59.375 23.935387 58.7593915 24.5555556 58 24.5555556 57.2406085 24.5555556 56.625 23.935387 56.625 23.1703704zM46.5097284 8.49918509C46.6341707 8.17483441 46.4740463 7.81026855 46.1520806 7.68490444 45.8301148 7.55954033 45.4682296 7.72085081 45.3437873 8.04520149L43.9170295 11.7639515C43.7925871 12.0883022 43.9527115 12.452868 44.2746773 12.5782321 44.596643 12.7035962 44.9585282 12.5422858 45.0829705 12.2179351L46.5097284 8.49918509zM8.06945383 26.5440251C7.72548948 26.514891 7.42320713 26.7721769 7.3942873 27.1186891 7.36536747 27.4652013 7.62076151 27.7697228 7.96472586 27.7988569L10.3690227 28.0025027C10.7129871 28.0316368 11.0152694 27.7743509 11.0441893 27.4278387 11.0731091 27.0813264 10.8177151 26.776805 10.4737507 26.7476709L8.06945383 26.5440251z" class="secondary-fill" style="fill-opacity: 0.5;"/>
        <g class="base">
            <g fill="none" fill-rule="evenodd" stroke="none" class="main-fill"/>
            <g fill="none" stroke="none" class="main-fill" transform="translate(21.636 17.818)">
                <path fill="none" stroke="none" d="M26.7272727,5.46381818 L26.7272727,0.636363636 C26.7272727,0.285090909 26.4428182,0 26.0909091,0 L21.2634545,0 L26.7272727,5.46381818 L26.7272727,5.46381818 Z" class="main-fill"/>
                <polygon fill="none" stroke="none" points="20.364 .9 20.364 6.364 25.827 6.364" class="main-fill"/>
                <path fill="none" stroke="none" d="M19.7272727,7.63636364 C19.3753636,7.63636364 19.0909091,7.35127273 19.0909091,7 L19.0909091,0 L0.636363636,0 C0.285090909,0 0,0.285090909 0,0.636363636 L0,33.7272727 C0,34.0791818 0.285090909,34.3636364 0.636363636,34.3636364 L26.0909091,34.3636364 C26.4428182,34.3636364 26.7272727,34.0791818 26.7272727,33.7272727 L26.7272727,7.63636364 L19.7272727,7.63636364 L19.7272727,7.63636364 Z M19.0909091,17.1818182 C19.0909091,17.5330909 18.8064545,17.8181818 18.4545455,17.8181818 L8.27272727,17.8181818 C7.92145455,17.8181818 7.63636364,17.5330909 7.63636364,17.1818182 L7.63636364,9.54545455 C7.63636364,9.19418182 7.92145455,8.90909091 8.27272727,8.90909091 L18.4545455,8.90909091 C18.8064545,8.90909091 19.0909091,9.19418182 19.0909091,9.54545455 L19.0909091,17.1818182 L19.0909091,17.1818182 Z" class="main-fill"/>
                <path fill="none" stroke="none" d="M8.90909091,16.5454545 L17.8181818,16.5454545 L17.8181818,10.1818182 L8.90909091,10.1818182 L8.90909091,16.5454545 L8.90909091,16.5454545 Z M10.8181818,11.4545455 L15.9090909,11.4545455 C16.261,11.4545455 16.5454545,11.7396364 16.5454545,12.0909091 C16.5454545,12.4421818 16.261,12.7272727 15.9090909,12.7272727 L10.8181818,12.7272727 C10.4669091,12.7272727 10.1818182,12.4421818 10.1818182,12.0909091 C10.1818182,11.7396364 10.4669091,11.4545455 10.8181818,11.4545455 L10.8181818,11.4545455 Z M10.8181818,14 L13.3636364,14 C13.7149091,14 14,14.2850909 14,14.6363636 C14,14.9876364 13.7149091,15.2727273 13.3636364,15.2727273 L10.8181818,15.2727273 C10.4669091,15.2727273 10.1818182,14.9876364 10.1818182,14.6363636 C10.1818182,14.2850909 10.4669091,14 10.8181818,14 L10.8181818,14 Z" class="main-fill"/>
            </g>
        </g>
    </g>
    <style>
        .main-fill {fill: #7e57c2;} .main-stroke {stroke: #7e57c2;} .secondary-fill {fill: #ff4081;} .secondary-stroke {stroke: #ff4081;} .main-fill--darken {fill: #593696;} .main-stroke--darken {stroke: #593696;} .secondary-fill--darken {fill: #f20053;} .secondary-stroke--darken {stroke: #f20053;} .main-fill--darkener {fill: #432971;} .main-stroke--darkener {stroke: #432971;} .secondary-fill--darkener {fill: #bf0041;} .secondary-stroke--darkener {stroke: #bf0041;}
    </style>
</svg>

<svg xmlns="http://www.w3.org/2000/svg" width="70" height="70" style="width:100%;height:100%" viewBox="0 0 70 70"><desc>Made with illustrio</desc><g class="content"><path d="M15.5 13.215l-.624-.63v2.497c0 .347.28.63.625.63H18.5l-.625-.63v2.54c0 .348.28.63.625.63a.627.627 0 0 0 .625-.63v-2.54c0-.348-.28-.63-.625-.63h-3l.626.63v-2.497c0-.348-.28-.63-.625-.63H12.5a.627.627 0 0 0-.625.63c0 .348.28.63.625.63h3zm24.375 48.763l.625-.63h-1.982a.627.627 0 0 0-.625.63v2.015l.625-.63H36.5a.627.627 0 0 0-.625.63c0 .347.28.63.625.63h2.018a.627.627 0 0 0 .625-.63v-2.015l-.625.63H40.5a.627.627 0 0 0 .625-.63v-2.015c0-.348-.28-.63-.625-.63a.627.627 0 0 0-.625.63v2.015zM22.009 53.27a.633.633 0 0 0-.146-.879.622.622 0 0 0-.872.147l-2.5 3.526a.633.633 0 0 0 .146.878c.28.202.671.137.872-.146l2.5-3.526zm34.207 2.889a.622.622 0 0 0 .881-.065.633.633 0 0 0-.065-.888l-2.624-2.283a.622.622 0 0 0-.881.066.633.633 0 0 0 .065.888l2.624 2.282zm-43.091-13.07c0-1.878-1.511-3.4-3.375-3.4s-3.375 1.522-3.375 3.4 1.511 3.4 3.375 3.4 3.375-1.522 3.375-3.4zm-5.5 0c0-1.182.951-2.14 2.125-2.14s2.125.958 2.125 2.14c0 1.182-.951 2.14-2.125 2.14a2.133 2.133 0 0 1-2.125-2.14z" class="secondary-fill" fill-opacity=".5"/><ellipse cx="28" cy="7.059" class="secondary-fill" rx="1" ry="1.007" fill-opacity=".5"/><ellipse cx="17.25" cy="58.696" class="secondary-fill" rx=".75" ry=".756" fill-opacity=".5"/><ellipse cx="63.25" cy="28.563" class="secondary-fill" rx=".75" ry=".756" fill-opacity=".5"/><ellipse cx="59.75" cy="44.615" class="secondary-fill" rx="1.25" ry="1.259" fill-opacity=".5"/><path d="M60.625 23.17A2.635 2.635 0 0 0 58 20.526a2.635 2.635 0 0 0-2.625 2.644A2.635 2.635 0 0 0 58 25.815a2.635 2.635 0 0 0 2.625-2.645zm-4 0A1.38 1.38 0 0 1 58 21.785c.76 0 1.375.62 1.375 1.385A1.38 1.38 0 0 1 58 24.556a1.38 1.38 0 0 1-1.375-1.386zM46.51 8.5a.631.631 0 0 0-.358-.815.624.624 0 0 0-.808.36l-1.427 3.719a.631.631 0 0 0 .358.814.624.624 0 0 0 .808-.36l1.427-3.719zM8.07 26.543a.626.626 0 0 0-.676.575.628.628 0 0 0 .57.68l2.405.204a.626.626 0 0 0 .675-.575.628.628 0 0 0-.57-.68l-2.405-.204z" class="secondary-fill" fill-opacity=".5"/><g class="base"><g fill="none" class="main-fill"><path d="M48.363 23.282v-4.828a.636.636 0 0 0-.636-.636h-4.828l5.464 5.464zM42 18.718v5.464h5.463z" class="main-fill"/><path d="M41.363 25.454a.636.636 0 0 1-.636-.636v-7H22.272a.637.637 0 0 0-.636.636v33.091c0 .352.285.637.636.637h25.455a.636.636 0 0 0 .636-.637v-26.09h-7zM40.727 35a.636.636 0 0 1-.636.636H29.909a.637.637 0 0 1-.637-.636v-7.637c0-.35.285-.636.637-.636H40.09c.351 0 .636.285.636.636V35z" class="main-fill"/><path d="M30.545 34.363h8.91V28h-8.91v6.363zm1.91-5.09h5.09a.636.636 0 1 1 0 1.272h-5.09a.637.637 0 0 1 0-1.272zm0 2.545H35a.637.637 0 0 1 0 1.273h-2.546a.637.637 0 0 1 0-1.273z" class="main-fill"/></g></g></g><style>.main-fill{fill:#7e57c2}.main-stroke{stroke:#7e57c2}.secondary-fill{fill:#ff4081}.secondary-stroke{stroke:#ff4081}.main-fill--darken{fill:#593696}.main-stroke--darken{stroke:#593696}.secondary-fill--darken{fill:#f20053}.secondary-stroke--darken{stroke:#f20053}.main-fill--darkener{fill:#432971}.main-stroke--darkener{stroke:#432971}.secondary-fill--darkener{fill:#bf0041}.secondary-stroke--darkener{stroke:#bf0041}</style></svg>
